X:109
T:Turkish Jigg
M:6/8
L:1/8
B:Thompson's Compleat Collection of 200 Favourite Country Dances, vol. 1 (London, 1757)
Z:Transcribed and edited by Fynnian Titford-Mock, 2007
Z:abc's:AK/Fiddler's Companion
K:G
BGG BGG|GBd gfg|BGG BGG|DEF G3::Bdd Bd|^ceg fed|afa gea|AB^c d3:|
|:Bcd efg|ABc def|GAB cde|DEF G3::dBG ecA|fdf g3|ecA dBG|DEF G3:|

